X: 2
T:Psalm) 8 N.V. (New Version). BF12.02
M:2/2
L:1/4
S:MS12,dated 1833,Browne Coll.,Lakes
R:Psalm
O:England
A:Lakes
Z:vmp.Cherri Graebe.
K:CMaj
G4|GGcc|AGGE|FAEG|G4||cc/2c/2(c2|c4)|!
GG/2G/2(G2|G3)G|cGG(EF)|GGBe|d3G|AcBd|c4|]
